icons/letrina_alt_fill.svg

<svg width="48" height="48" viewBox="0 0 48 48" fill="none" xmlns="http://www.w3.org/2000/svg">
<path d="M6 8C6 6.89543 6.89543 6 8 6H16C17.1046 6 18 6.89543 18 8V10H6V8Z" fill="black"/>
<path d="M12 28L12 25H6V12H18V23H42C42 31.4303 36.2969 36.3509 29 36.9401V37H23.5V39H29V42H14.5V30C13.7534 30 12 29.5 12 28Z" fill="black"/>
<path d="M20 20C20 19.4477 20.4477 19 21 19H41C41.5523 19 42 19.4477 42 20C42 20.5523 41.5523 21 41 21H21C20.4477 21 20 20.5523 20 20Z" fill="black"/>
</svg>

<svg
  xmlns="http://www.w3.org/2000/svg"
  width="24"
  height="24"
  viewBox="0 0 24 24"
  fill="none"
  stroke="currentColor"
  stroke-width="2"
  stroke-linecap="round"
  stroke-linejoin="round"
>
  <path d="M6 8a2 2 0 0 1 2-2h8a2 2 0 0 1 2 2v2H6z" />
  <path d="M12 28v-3H6V12h12v11h24c0 8.43-5.703 13.35-13 13.94V37h-5.5v2H29v3H14.5V30c-.747 0-2.5-.5-2.5-2" />
  <path d="M20 20a1 1 0 0 1 1-1h20a1 1 0 1 1 0 2H21a1 1 0 0 1-1-1" />
</svg>
